fonts/lozegw/uni004f.svg

<svg width="500" height="850" xmlns="http://www.w3.org/2000/svg">
    <path
        d="m -450,600 -25,25 25,25 75,75 25,25 100,100 100,-100 25,-25 75,-75 25,-25 -25,-25 -25,25 -75,75 -75,-75 -12.5,-12.5 -12.5,-12.5 -25,25 12.5,12.5 12.5,12.5 75,75 -75,75 -175,-175 z" />
</svg>

<svg width="500" height="850" xmlns="http://www.w3.org/2000/svg">
    <path
        d="M -450 600 L -475 625 L -450 650 L -375 725 L -350 750 L -250 850 L -150 750 L -125 725 L -50 650 L -25 625 L -50 600 L -75 625 L -150 700 L -225 625 L -237.5 612.5 L -250 600 L -275 625 L -262.5 637.5 L -250 650 L -175 725 L -250 800 L -425 625 L -450 600 z " />
</svg>
